Dominus_Dark_Funeral/22/apps/dottrace.svg

<svg xmlns="http://www.w3.org/2000/svg" width="24" height="24" version="1"><defs><linearGradient id="a"><stop offset="0" stop-color="#040000"/><stop offset="1" stop-opacity="0"/></linearGradient></defs><path d="M1 1v22h22V1H1zm12.47 2.83h5.25l-1.9 1.92h-.95v7.9l.78.78-1.74 1.74-1.72-1.74.77-.78v-7.9h-2.39l1.9-1.92zm-6.66.02h2.53l2.26 2.26v7.82l-2.23 2.23H6.8l-1.52-1.53.83-.8V6.19l-.84-.81L6.8 3.85zm1.22 1.73v8.9l1.66-1.67V7.26L8.03 5.58zM7.1 17.46h9.78v1.9H7.11v-1.9z" fill="#e6e6e6"/></svg>

<?xml version="1.0" encoding="UTF-8" standalone="no"?>
<svg
   xmlns:dc="http://purl.org/dc/elements/1.1/"
   xmlns:cc="http://creativecommons.org/ns#"
   xmlns:rdf="http://www.w3.org/1999/02/22-rdf-syntax-ns#"
   xmlns:svg="http://www.w3.org/2000/svg"
   xmlns="http://www.w3.org/2000/svg"
   xmlns:sodipodi="http://sodipodi.sourceforge.net/DTD/sodipodi-0.dtd"
   xmlns:inkscape="http://www.inkscape.org/namespaces/inkscape"
   width="24"
   height="24"
   version="1"
   id="svg11"
   sodipodi:docname="dottrace.svg"
   inkscape:version="0.92.4 (5da689c313, 2019-01-14)">
  <metadata
     id="metadata15">
    <rdf:RDF>
      <cc:Work
         rdf:about="">
        <dc:format>image/svg+xml</dc:format>
        <dc:type
           rdf:resource="http://purl.org/dc/dcmitype/StillImage" />
        <dc:title></dc:title>
      </cc:Work>
    </rdf:RDF>
  </metadata>
  <sodipodi:namedview
     pagecolor="#ffffff"
     bordercolor="#666666"
     borderopacity="1"
     objecttolerance="10"
     gridtolerance="10"
     guidetolerance="10"
     inkscape:pageopacity="0"
     inkscape:pageshadow="2"
     inkscape:window-width="1142"
     inkscape:window-height="480"
     id="namedview13"
     showgrid="false"
     inkscape:zoom="9.8333333"
     inkscape:cx="1.2711864"
     inkscape:cy="12"
     inkscape:window-x="0"
     inkscape:window-y="25"
     inkscape:window-maximized="0"
     inkscape:current-layer="svg11" />
  <defs
     id="defs7">
    <linearGradient
       id="a">
      <stop
         offset="0"
         stop-color="#040000"
         id="stop2" />
      <stop
         offset="1"
         stop-opacity="0"
         id="stop4" />
    </linearGradient>
  </defs>
  <path
     d="M 1,1 V 23 H 23 V 1 Z m 12.47,2.83 h 5.25 l -1.9,1.92 h -0.95 v 7.9 l 0.78,0.78 -1.74,1.74 -1.72,-1.74 0.77,-0.78 V 5.75 H 11.57 Z M 6.81,3.85 h 2.53 l 2.26,2.26 v 7.82 L 9.37,16.16 H 6.8 L 5.28,14.63 6.11,13.83 V 6.19 L 5.27,5.38 6.8,3.85 Z m 1.22,1.73 v 8.9 L 9.69,12.81 V 7.26 Z M 7.1,17.46 h 9.78 v 1.9 H 7.11 v -1.9 z"
     id="path9"
     inkscape:connector-curvature="0"
     style="fill:#e6e6e6" />
</svg>
